data/styles/clear/style-clear/symbols/zoo-m.svg

<svg height="24" viewBox="0 0 24 24" width="24"><g fill="none" fill-rule="evenodd"><circle cx="12" cy="12" fill="#fff" opacity=".6" r="12"/><circle cx="12" cy="12" fill="#7f5933" r="11"/><path d="m14.7777778 5c-1.4814778 2.15384615-1.6920111 3.95241538-3.3333334 5.3846154-1.56787773 1.3680154-4.4444444.8983692-4.4444444 2.8718308v.7178769c0 .7179846.74074444 1.4010769.74074444 2.1538461v.7179846c0 1.0769231-.37037777 1.0769231-.74074444 2.1538462h.74074444l1.48147778-2.1538462v2.1538462h1.11111108v-4.3076923h1.1111111v4.3076923h1.1111112v-3.2307692l1.1111111 3.2307692h.7407444l-1.1342667-4.5096154c.4366667-.2582461.3935223-.7356461.3935223-1.2339384v-2.1538462l1.6666666-3.94875385 1.6666667.53846154c0-.05061538-.0005778-.49753846 0-.53846154 0 0-.2705667-.26223077-.3703667-.35893846z" fill="#fff"/></g></svg>

<svg width="24" height="24" viewBox="0 0 24 24">
  <g fill="none" fill-rule="evenodd">
    <circle cx="12" cy="12" r="12" fill="#FFF" opacity=".6"/>
    <circle cx="12" cy="12" r="11" fill="#7F5933"/>
    <path fill="#FFF" d="M14.7777778,5 C13.2963,7.15384615 13.0857667,8.95241538 11.4444444,10.3846154 C9.87656667,11.7526308 7,11.2829846 7,13.2564462 L7,13.9743231 C7,14.6923077 7.74074444,15.3754 7.74074444,16.1281692 L7.74074444,16.8461538 C7.74074444,17.9230769 7.37036667,17.9230769 7,19 L7.74074444,19 L9.22222222,16.8461538 L9.22222222,19 L10.3333333,19 L10.3333333,14.6923077 L11.4444444,14.6923077 L11.4444444,19 L12.5555556,19 L12.5555556,15.7692308 L13.6666667,19 L14.4074111,19 L13.2731444,14.4903846 C13.7098111,14.2321385 13.6666667,13.7547385 13.6666667,13.2564462 L13.6666667,11.1026 L15.3333333,7.15384615 L17,7.69230769 C17,7.64169231 16.9994222,7.19476923 17,7.15384615 C17,7.15384615 16.7294333,6.89161538 16.6296333,6.79490769 L14.7777778,5 Z"/>
  </g>
</svg>
